X:1
T:Title
%%score { 1 | 2 }
L:1/8
M:3/4
K:Bb
V:1 treble nm="Grand Piano"
V:2 bass 
V:1
 z2 z2[Q:1/4=118] [DF]2 | [DF]2 [B,D]2 [DF]2 | [DB]2 [DF]2 [DB]2 | [Fd]3 [Ec] [DB]2 | [DF]4 D2 | %5
 E2 E2 E2 | G2 F2 E2 | D6- | D4 [DF]2 | [DF]2 [B,D]2 [DF]2 | [DB]2 [DF]2 [DB]2 | [Fd]3 [Ec] [DB]2 | %12
 [B,DF]4 [DFB]2 | [FA]2 [FA]2 [FA]2 | [=Ec]2 [EB]2 [EG]2 | F6- |[M:2/4] F4 |[M:1/4] F2 | %18
[M:3/4] [Fd]3 [Ec] [DB]2 | [Fd]2 [Fc]2 [FB]2 | [GB]2 [FA]2 [EG]2 | [GB]4 [EG]2 | %22
 [DF]2 [DF]2 [DF]2 | [FB]2 [Fc]2 [Fd]2 | d2 c2 =B2 | c4 F2 | [Fd]3 [Ec] [DB]2 | %27
 [Fd]2 [Fc]2 [_AB]2 | [Ge]2 [EG]2 [GB]2 |[M:4/4] [^Fd]6 [Fd]2 |[M:3/4] [Ec]2 [EG]2 [=EB]2 | %31
 A3 B c2 | [DB]6- |[M:2/4] [DB]4 |] %34
V:2
 z2 z2 [B,,B,]2 | [B,,B,]2 [B,,F,]2 [B,,B,]2 | [B,,F,]2 [B,,B,]2 [B,,F,]2 | %3
 [B,,B,]3 [B,,B,] [B,,F,]2 | [B,,B,]4 [B,,F,B,]2 | [F,A,C]2 [F,A,C]2 [F,A,C]2 | %6
 [F,A,E]2 [F,B,D]2 [F,C]2 | [B,,F,B,]6- | [B,,F,B,]4 [B,,B,]2 | [B,,B,]2 [B,,F,]2 [B,,B,]2 | %10
 [B,,F,]2 [B,,B,]2 [B,,F,]2 | [B,,B,]3 [B,,B,] [B,,F,]2 | B,,4 B,,2 | [C,C]2 [C,C]2 [C,C]2 | %14
 [C,G,]2 [C,G,]2 [C,B,]2 | [F,A,]6- |[M:2/4] [F,A,]4 |[M:1/4] [F,A,]2 | %18
[M:3/4] [B,,B,]3 [B,,B,] [B,,F,]2 | [B,,B,]2 [C,A,]2 [D,B,]2 | [E,E]2 [E,E]2 [E,B,]2 | %21
 [E,E]4 [E,B,]2 | [B,,B,]2 [B,,B,]2 [B,,B,]2 | [D,B,]2 [C,A,]2 [B,,B,]2 | %24
 [F,B,F]2 [F,A,F]2 [F,_A,F]2 | [F,A,F]4 [F,A,]2 | [B,,B,]3 [B,,B,] [B,,F,]2 | %27
 [B,,B,]2 [C,A,]2 [D,B,]2 | [E,B,]2 [E,B,]2 [E,G,]2 |[M:4/4] [D,A,]6 [D,A,]2 | %30
[M:3/4] [E,G,]2 [E,B,]2 [C,C]2 | [F,CE]3 [F,B,D] [F,A,E]2 | [B,,B,]6- |[M:2/4] [B,,B,]4 |] %34

